packages/katcn/src/icons/svg/layout5-solid.svg

<svg xmlns="http://www.w3.org/2000/svg" fill="none" viewBox="0 0 24 25"><path fill="#000" d="M22 6.7v1.5H2V6.7c0-2.4 1.9-4.3 4.3-4.3h11.5c2.3 0 4.2 1.9 4.2 4.3M2 10.1h20v8c0 2.3-1.9 4.3-4.3 4.3H6.3c-2.4 0-4.3-1.9-4.3-4.3z"/><path fill="#fff" d="M17.7 15H6.3c-.6 0-1-.4-1-1s.4-1 1-1h11.5c.6 0 1 .4 1 1s-.5 1-1.1 1m0 4.1H6.3c-.6 0-1-.4-1-1s.4-1 1-1h11.5c.6 0 1 .4 1 1s-.5 1-1.1 1"/></svg>

<svg width="24" height="25" viewBox="0 0 24 25" fill="none" xmlns="http://www.w3.org/2000/svg">
<path d="M22 6.70002V8.20002H2V6.70002C2 4.30002 3.9 2.40002 6.3 2.40002H17.8C20.1 2.40002 22 4.30002 22 6.70002Z" fill="black"/>
<path d="M2 10.1H22V18.1C22 20.4 20.1 22.4 17.7 22.4H6.3C3.9 22.4 2 20.5 2 18.1V10.1Z" fill="black"/>
<path d="M17.7 15H6.3C5.7 15 5.3 14.6 5.3 14C5.3 13.4 5.7 13 6.3 13H17.8C18.4 13 18.8 13.4 18.8 14C18.8 14.6 18.3 15 17.7 15Z" fill="white"/>
<path d="M17.7 19.1H6.3C5.7 19.1 5.3 18.7 5.3 18.1C5.3 17.5 5.7 17.1 6.3 17.1H17.8C18.4 17.1 18.8 17.5 18.8 18.1C18.8 18.7 18.3 19.1 17.7 19.1Z" fill="white"/>
</svg>
